!!!COM: Palestrina, Giovanni Perluigi da
!!!OPR: Missa In festis Apostolorum (II)
!!!OMD: Credo
!!!OTL: First Section
**kern	**kern	**kern	**kern	**kern
*Ibass	*Itenor	*Itenor	*Icalto	*Icant
!Bassus	!Tenor 2	!Tenor 1	!Altus	!Cantus
*clefF4	*clefGv2	*clefGv2	*clefG2	*clefG2
*k[]	*k[]	*k[]	*k[]	*k[]
*D:dor	*D:dor	*D:dor	*D:dor	*D:dor
*M4/2	*M4/2	*M4/2	*M4/2	*M4/2
=1	=1	=1	=1	=1
0r	0r	0r	1e	1r
.	.	.	2c	1e
.	.	.	2A	.
=2	=2	=2	=2	=2
0r	0r	0r	2e	2g
.	.	.	2c	2a
.	.	.	2d	1b
.	.	.	2e	.
=3	=3	=3	=3	=3
0r	0r	1r	4A	1cc
.	.	.	4B	.
.	.	.	4c	.
.	.	.	4d	.
.	.	1E	4e	2b
.	.	.	4f	.
.	.	.	[2g	[2cc
=4	=4	=4	=4	=4
1r	0r	2G	4g]	2cc]
.	.	.	4f	.
.	.	2A	4e	1a
.	.	.	4d	.
1E	.	1B	[1e	.
.	.	.	.	2g#
=5	=5	=5	=5	=5
2C	2r	1c	0e]	1a
2AA	2E	.	.	.
2E	2G	2B	.	2r
2C	2A	[2A	.	2cc
=6	=6	=6	=6	=6
2D	1B	2A]	2r	2b
2E	.	2G#	2e	2b
4AA	1c	2A	1e	1a
4BB	.	.	.	.
4C	.	2E	.	.
4D	.	.	.	.
=7	=7	=7	=7	=7
4E	2B	2.G	2e	2g
4F	.	.	.	.
1G	1B	.	4d	1g
.	.	4A	4c	.
.	.	4B	1d	.
.	.	4c	.	.
2D	[2A	4d	.	2f
.	.	4c	.	.
=8	=8	=8	=8	=8
1E	2A]	4B	1r	2e
.	.	4A	.	.
.	2G#	2B	.	2b
1AA	1A	1A	1e	1cc
=9	=9	=9	=9	=9
0r	0r	0r	2f	1.dd
.	.	.	2g	.
.	.	.	2f	.
.	.	.	[2e	2cc
=10	=10	=10	=10	=10
0r	2r	0r	4e]	1b
.	.	.	4d	.
.	2B	.	1g	.
.	2c	.	.	[1a
.	[2d	.	4f	.
.	.	.	4e	.
=11	=11	=11	=11	=11
1r	2d]	1r	2f	2a]
.	2c	.	1e	2a
[1E	2B	2r	.	1g
.	[2G	2B	2e	.
=12	=12	=12	=12	=12
2E]	2G]	2c	2e	0r
2F	2A	1d	4d	.
.	.	.	4c	.
[1G	2.B	.	4B	.
.	.	.	4A	.
.	.	2e	2G	.
.	4c	.	.	.
=13	=13	=13	=13	=13
2G]	2B	2d	0r	0r
2F	2.A	2.d	.	.
2E	.	.	.	.
.	4G	4c	.	.
[2E	[2G	[2c	.	.
=14	=14	=14	=14	=14
2E]	2G]	2c]	1r	1r
2D	2F	2B	.	.
1C	1G	1c	1e	2r
.	.	.	.	2g
=15	=15	=15	=15	=15
0r	0r	2r	1f	2a
.	.	2F	.	2.cc
.	.	2A	1e	.
.	.	.	.	4b
.	.	2c	.	4g
.	.	.	.	4a
=16	=16	=16	=16	=16
0r	0r	2G	2d	4b
.	.	.	.	4a
.	.	1c	1e	4g
.	.	.	.	4f
.	.	.	.	2g
.	.	2d	[2d	2f
=17	=17	=17	=17	=17
1r	1r	1A	2d]	2e
.	.	.	2c#	2e
1G	1B	2r	2d	[1g
.	.	2G	2d	.
=18	=18	=18	=18	=18
2.C	1c	2G	2e	0g]
.	.	2.G	2.g	.
4D	.	.	.	.
4E	1B	.	.	.
4F	.	4A	4f	.
2G	.	4B	4d	.
.	.	4c	4e	.
=19	=19	=19	=19	=19
2D	2A	1d	4f	0r
.	.	.	4e	.
2G	1B	.	4d	.
.	.	.	4c	.
2G	.	2B	2d	.
2A	[2A	[2e	2c	.
=20	=20	=20	=20	=20
1E	2A]	2e]	2B	1b
.	2G#	2e	2B	.
2r	1A	1e	2A	1cc
[2A	.	.	[2e	.
=21	=21	=21	=21	=21
2A]	1E	2r	2e]	1b
2G#	.	2B	2e	.
2A	2A	2c	1e	2a
2E	[2G	2B	.	[2b
=22	=22	=22	=22	=22
2.C	2G]	2E	1e	2b]
.	2c	1e	.	1a
4D	.	.	.	.
2E	2B	.	2.e	.
2E	2B	2B	.	2g#
.	.	.	4e	.
=23	=23	=23	=23	=23
[0AA	[0A	[0c#	[0e	[0a
=24	=24	=24	=24	=24
0AA]	0A]	0c#]	0e]	0a]
*-	*-	*-	*-	*-
!!!CDT: 1525/^1526/-1594/2/2
!!!OCY: Italia
!!!AGN: Mass (Paraphrase)
!!!AST: renaissance, vocal
!!!ASW: Gregorian Mass
!!!PWK: Masses, Book Mantuan II
!!!RNB: Cadence finals: A
!!!YOR: Le Opere Complete, v. 19, p. 1
!!!YOO: Rome, Italy: Fratelli Scalera
!!!END: 1992//
!!!EED: John Miller
!!!YEC: Copyright 2000, John Miller
!!!YEN: United States of America
!!!YEM: Rights to all derivative electronic formats reserved.
!!!YEM: Refer to licensing agreement for further details.
!!!YEM: This file must be accompanied by the licensing agreement.
!!!YEM: A copy of the licensing agreement may be found at http://www.music-cog.ohio-state.edu/HumdrumDatabases/Palestrina/license.txt
!!!EMD: converted to Humdrum by Bret Aarden
